X: 192
T:Duncan Johnstone
M:4/4
L:1/8
F:http://blackrosetheband.googlepages.com/ABCTUNES.ABC May 2009
C:Composer: Donald McLeod
S:Source: Angus Session Podcasts
R:Hornpipe
K:AMix
"Am"Aeed edde|eABd e2fg|"G"GddB dBBd|egde BdGB|
"Am"Aeed edde|eABd e2fg|"G"eaag egBd|1 "Am"e2 A2 A2 e2:|2 "Am"e2 A2 A3 B ||
"Am"Aaag aeef|gefd e2dB|"G"GddB dBBd|egde BdGB|
"Am"Aaag aeef|gefd e2dB|"G"Aeed "Em"egBd|"Am"e2 A2 A3 B|
"Am"Aaag aeef|gefd e2dB|"G"GddB dBBd|egde BdGB|
"Am"Aeed edde|eABd e2fg|"G"eaag egBd| "Am"e2 A2 A2 gf||
"Am"eA (3AAA Ae2d|BAAB e2ge|"G"dGGG dBBd|egde BdGB|
"Am"eAAA Ae2d|BAAB e2fg|"G"eaag egBd|1 "Am"e2A2A2 gf :|2 "Am"e2A2A2 fg||
"Am"aaag aeeg|aaag a2ef|"G"gage degf|egde BdGB|
"Am"aaag aeeg|aaag a2ef|"G"gaag "Em"egBd|"Am"e2A2A2 fg|
"Am"aaag aeeg|aaag a2ef|"G"gage degf|egde BdGB|
"Am"e2de Aeed|BAAB e2fg|"G"eaag egBd|"Am"e2A2A4||

